X: 39903
T: Thom's March
R: jig
M: 6/8
K: Gmajor
|:GFG BAG|EGE D2c|BAG dBG|FAA A2D|
GFG BAG|EGE D2c|BAG DFA|1 BGG G2D:|2 BGG GBc||
dBd gfg|ece d2c|BAG dBG|FAA ABc|
dBd gfg|ece d2c|BAG DFA|1 BGG GBc:|2 BGG G2D||

